papirus/16x16/apps/gnome-pie.svg

<svg height="16" width="16" xmlns="http://www.w3.org/2000/svg"><path d="m5.2443623 13.198186c.7190562.411051.968691 1.32717.557666 2.046176-.4110499.719057-1.3271691.968691-2.0461753.557667-.7192562-.410976-.968941-1.32692-.557866-2.046376.411025-.718957 1.3269192-.968441 2.0463753-.557467z" fill="#ffcf3f"/><path d="m2.9923173 8.2641095c.9588002.5480974 1.2917146 1.7696575.7436001 2.7284575-.5481144.958858-1.7696576 1.291429-2.7284007.743429-.95880026-.548-1.29171463-1.7697146-.7436002-2.728572.54811444-.9588573 1.7696576-1.2914289 2.7284008-.7434288z" fill="#7cc327"/><path d="m4.7407078 2.3299995c1.1981544.6851418 1.6144145 2.211929.9293978 3.4107084-.6850168 1.1981543-2.2121166 1.6144144-3.4105834.9293977-1.1985293-.6850168-1.61466449-2.2121166-.9295227-3.4105834.6851417-1.1985292 2.2121165-1.6146644 3.4107083-.9295227z" fill="#27adc3"/><path d="m12.23674.46195475c1.677843.95919515 2.260437 3.09694085 1.301306 4.77478455-.959195 1.6778436-3.096941 2.2604371-4.7747853 1.3013056-1.6778436-.9591951-2.2604371-3.0969408-1.3013056-4.7747845.9591951-1.67784366 3.0969409-2.26043711 4.7747849-1.30130565z" fill="#ffcf3f"/><path d="m14.740527 7.329977c1.198433.6851224 1.614619 2.2120541.929496 3.41055-.685122 1.198432-2.212054 1.614619-3.41055.929496-1.198432-.685122-1.614619-2.2120539-.929496-3.4105495.685122-1.198433 2.212054-1.614619 3.41055-.9294965z" fill="#7cc327"/><path d="m10.896545 12.212577c.987146.495053 1.386061 1.696634.891032 2.68378-.495053.987146-1.696634 1.386061-2.6837801.891031-.9871459-.495053-1.3860614-1.696634-.8910314-2.68378.495053-.987145 1.6966337-1.386061 2.6837795-.891031z" fill="#27adc3"/></svg>

<?xml version="1.0" encoding="UTF-8" standalone="no"?>
<!-- Created with Inkscape (http://www.inkscape.org/) -->

<svg
   xmlns:dc="http://purl.org/dc/elements/1.1/"
   xmlns:cc="http://creativecommons.org/ns#"
   xmlns:rdf="http://www.w3.org/1999/02/22-rdf-syntax-ns#"
   xmlns:svg="http://www.w3.org/2000/svg"
   xmlns="http://www.w3.org/2000/svg"
   xmlns:xlink="http://www.w3.org/1999/xlink"
   xmlns:sodipodi="http://sodipodi.sourceforge.net/DTD/sodipodi-0.dtd"
   xmlns:inkscape="http://www.inkscape.org/namespaces/inkscape"
   id="svg2408"
   height="16"
   width="16"
   version="1.0"
   inkscape:version="0.91 r13725"
   sodipodi:docname="gnome-pie.svg">
  <sodipodi:namedview
     pagecolor="#ffffff"
     bordercolor="#666666"
     borderopacity="1"
     objecttolerance="10"
     gridtolerance="10"
     guidetolerance="10"
     inkscape:pageopacity="0"
     inkscape:pageshadow="2"
     inkscape:window-width="1600"
     inkscape:window-height="847"
     id="namedview55"
     showgrid="false"
     inkscape:zoom="27.52"
     inkscape:cx="9.0466327"
     inkscape:cy="7.2790698"
     inkscape:window-x="0"
     inkscape:window-y="0"
     inkscape:window-maximized="1"
     inkscape:current-layer="svg2408" />
  <defs
     id="defs2410">
    <linearGradient
       id="ButtonShadow"
       y2="7.0165"
       gradientUnits="userSpaceOnUse"
       x2="45.448002"
       gradientTransform="scale(1.0059,0.99417)"
       y1="92.540001"
       x1="45.448002">
      <stop
         id="stop3750"
         offset="0" />
      <stop
         id="stop3752"
         stop-opacity=".58824"
         offset="1" />
    </linearGradient>
    <linearGradient
       id="linearGradient3737">
      <stop
         id="stop3739"
         stop-color="#fff"
         offset="0" />
      <stop
         id="stop3741"
         stop-color="#fff"
         stop-opacity="0"
         offset="1" />
    </linearGradient>
    <filter
       id="filter3174"
       style="color-interpolation-filters:sRGB">
      <feGaussianBlur
         id="feGaussianBlur3176"
         stdDeviation="1.71" />
    </filter>
    <linearGradient
       id="linearGradient3188"
       y2="63.893002"
       xlink:href="#linearGradient3737"
       gradientUnits="userSpaceOnUse"
       x2="36.356998"
       y1="6"
       x1="36.356998" />
    <filter
       id="filter3794"
       style="color-interpolation-filters:sRGB"
       height="1.3839999"
       width="1.3839999"
       y="-0.192"
       x="-0.192">
      <feGaussianBlur
         id="feGaussianBlur3796"
         stdDeviation="5.28" />
    </filter>
    <linearGradient
       id="linearGradient3613"
       y2="138.66"
       xlink:href="#linearGradient3737"
       gradientUnits="userSpaceOnUse"
       x2="48"
       y1="20.221001"
       x1="48" />
    <radialGradient
       id="radialGradient3619"
       xlink:href="#linearGradient3737"
       gradientUnits="userSpaceOnUse"
       cy="90.171997"
       cx="48"
       gradientTransform="matrix(1.1573,0,0,0.99591,-7.551,0.19713)"
       r="42" />
    <clipPath
       id="clipPath3613">
      <rect
         id="rect3615"
         rx="6"
         ry="6"
         height="84"
         width="84"
         y="6"
         x="6"
         style="fill:#ffffff" />
    </clipPath>
    <linearGradient
       id="linearGradient2843"
       y2="5.9877"
       gradientUnits="userSpaceOnUse"
       x2="48"
       gradientTransform="translate(0,100)"
       y1="90"
       x1="48">
      <stop
         id="stop3702"
         stop-color="#2276c5"
         offset="0" />
      <stop
         id="stop3704"
         stop-color="#68baf4"
         offset="1" />
    </linearGradient>
    <clipPath
       id="clipPath3625">
      <path
         id="path3627"
         d="M 0,0 0,96 96,96 96,0 0,0 Z m 12,6 72,0 c 3.324,0 6,2.676 6,6 l 0,72 c 0,3.324 -2.676,6 -6,6 L 12,90 C 8.676,90 6,87.324 6,84 L 6,12 C 6,8.676 8.676,6 12,6 Z"
         inkscape:connector-curvature="0"
         style="fill:#ffffff" />
    </clipPath>
    <linearGradient
       id="linearGradient3643"
       y2="90.014999"
       gradientUnits="userSpaceOnUse"
       x2="44.512001"
       y1="6"
       x1="44.512001">
      <stop
         id="stop3639"
         stop-color="#f0f0f0"
         offset="0" />
      <stop
         id="stop3641"
         stop-color="#aaa"
         offset="1" />
    </linearGradient>
    <clipPath
       id="clipPath3649">
      <rect
         id="rect3651"
         rx="4"
         ry="4"
         height="76"
         width="76"
         y="10"
         x="10"
         style="fill:#ffffff" />
    </clipPath>
    <filter
       id="filter3657"
       style="color-interpolation-filters:sRGB">
      <feGaussianBlur
         id="feGaussianBlur3659"
         stdDeviation="1.14" />
    </filter>
  </defs>
  <metadata
     id="metadata2413">
    <rdf:RDF>
      <cc:Work
         rdf:about="">
        <dc:format>image/svg+xml</dc:format>
        <dc:type
           rdf:resource="http://purl.org/dc/dcmitype/StillImage" />
        <dc:title></dc:title>
      </cc:Work>
    </rdf:RDF>
  </metadata>
  <g
     id="layer2"
     display="none"
     transform="translate(0,-80)"
     style="display:none">
    <rect
       id="rect3745"
       clip-path="url(#clipPath3625)"
       rx="6"
       ry="6"
       height="85"
       width="86"
       y="7"
       x="5"
       style="opacity:0.9;fill:url(#ButtonShadow);filter:url(#filter3174)" />
  </g>
  <g
     id="layer1"
     display="none"
     transform="translate(0,-80)"
     style="display:none">
    <rect
       id="rect2419"
       rx="6"
       ry="6"
       height="84"
       width="84"
       y="6"
       x="6"
       style="opacity:0.8" />
    <path
       id="rect3726"
       d="m 14,10 c -2.216,0 -4,1.784 -4,4 l 0,68 c 0,2.216 1.784,4 4,4 l 68,0 c 2.216,0 4,-1.784 4,-4 l 0,-68 c 0,-2.216 -1.784,-4 -4,-4 l -68,0 z m 0,3.0625 68,0 c 0.57877,0 0.9375,0.35873 0.9375,0.9375 l 0,68 c 0,0.57877 -0.35873,0.9375 -0.9375,0.9375 l -68,0 c -0.57877,0 -0.9375,-0.35873 -0.9375,-0.9375 l 0,-68 c 0,-0.57877 0.35873,-0.9375 0.9375,-0.9375 z"
       inkscape:connector-curvature="0"
       style="opacity:0.07999998" />
    <path
       id="rect3629"
       d="M 12,6 C 8.676,6 6,8.676 6,12 l 0,72 c 0,3.324 2.676,6 6,6 l 72,0 c 3.324,0 6,-2.676 6,-6 L 90,12 C 90,8.676 87.324,6 84,6 L 12,6 Z m 2,4 68,0 c 2.216,0 4,1.784 4,4 l 0,68 c 0,2.216 -1.784,4 -4,4 l -68,0 c -2.216,0 -4,-1.784 -4,-4 l 0,-68 c 0,-2.216 1.784,-4 4,-4 z"
       inkscape:connector-curvature="0"
       style="fill:url(#linearGradient3643)" />
    <path
       id="rect3728"
       d="M 12,6 C 8.676,6 6,8.676 6,12 l 0,2 0,68 0,2 c 0,0.33472 0.04135,0.6507 0.09375,0.96875 0.0487,0.2956 0.09704,0.59692 0.1875,0.875 0.00988,0.03038 0.020892,0.0636 0.03125,0.09375 0.098865,0.28777 0.23488,0.54745 0.375,0.8125 0.14459,0.27351 0.31562,0.53562 0.5,0.78125 0.18438,0.24564 0.37378,0.47347 0.59375,0.6875 0.43995,0.42806 0.94291,0.81453 1.5,1.0938 0.27854,0.13961 0.57347,0.24695 0.875,0.34375 -0.2562,-0.10022 -0.48671,-0.23627 -0.71875,-0.375 -0.00741,-0.0044 -0.023866,0.0045 -0.03125,0 C 9.374317,89.262 9.343957,89.23879 9.3125,89.2188 9.1921,89.1421 9.08148,89.05529 8.96875,88.9688 8.86258,88.888 8.75547,88.80769 8.65625,88.7188 c -0.1778,-0.162 -0.3473,-0.346 -0.4999,-0.531 -0.1075,-0.131 -0.2183,-0.266 -0.3124,-0.407 -0.0251,-0.038 -0.0385,-0.086 -0.0626,-0.125 -0.0647,-0.103 -0.1302,-0.204 -0.1874,-0.312 -0.1011,-0.195 -0.2057,-0.416 -0.2813,-0.625 -0.008,-0.022 -0.0236,-0.041 -0.0313,-0.063 -0.0318,-0.092 -0.0358,-0.187 -0.0624,-0.281 -0.0304,-0.107 -0.0704,-0.203 -0.0938,-0.313 -0.0729,-0.341 -0.125,-0.698 -0.125,-1.062 l 0,-2 0,-68 0,-2 c 0,-2.782 2.2182,-5 5,-5 l 2,0 68,0 2,0 c 2.7818,0 5,2.2182 5,5 l 0,2 0,68 0,2 c 0,0.3643 -0.05212,0.72099 -0.125,1.0625 -0.04415,0.20689 -0.08838,0.39766 -0.15625,0.59375 -0.0077,0.02195 -0.0233,0.04069 -0.03125,0.0625 -0.06274,0.17374 -0.13838,0.36745 -0.21875,0.53125 -0.04158,0.0828 -0.07904,0.16995 -0.125,0.25 -0.0546,0.09721 -0.12677,0.18835 -0.1875,0.28125 -0.09411,0.14096 -0.20492,0.276 -0.3125,0.40625 -0.14317,0.17445 -0.30314,0.347 -0.46875,0.5 -0.01117,0.0102 -0.01998,0.02115 -0.03125,0.03125 -0.13839,0.12556 -0.28509,0.23444 -0.4375,0.34375 -0.10257,0.07315 -0.20432,0.15336 -0.3125,0.21875 -0.0074,0.0045 -0.02384,-0.0044 -0.03125,0 -0.23204,0.13873 -0.46255,0.27478 -0.71875,0.375 0.30153,-0.0968 0.59646,-0.20414 0.875,-0.34375 0.55709,-0.27922 1.0601,-0.66569 1.5,-1.0938 0.21997,-0.21403 0.40937,-0.44186 0.59375,-0.6875 0.18438,-0.24564 0.35541,-0.50774 0.5,-0.78125 0.14012,-0.26505 0.27614,-0.52473 0.375,-0.8125 0.01041,-0.03078 0.02133,-0.06274 0.03125,-0.09375 0.09046,-0.27808 0.1388,-0.5794 0.1875,-0.875 0.053,-0.318 0.094,-0.634 0.094,-0.969 l 0,-2 0,-68 0,-2 c 0,-3.324 -2.676,-6 -6,-6 l -72,0 z"
       inkscape:connector-curvature="0"
       style="fill:url(#linearGradient3188)" />
    <path
       id="path3615"
       d="M 12,90 C 8.676,90 6,87.324 6,84 L 6,82 6,14 6,12 c 0,-0.33472 0.04135,-0.6507 0.09375,-0.96875 0.0487,-0.2956 0.09704,-0.59692 0.1875,-0.875 0.0099,-0.03 0.0209,-0.063 0.0313,-0.094 0.0989,-0.2873 0.2349,-0.547 0.375,-0.812 0.1446,-0.2735 0.3156,-0.5356 0.5,-0.7812 0.1844,-0.2457 0.3738,-0.4735 0.5937,-0.6876 0.44,-0.428 0.943,-0.8145 1.5,-1.0937 0.2786,-0.1396 0.5735,-0.2469 0.8748,-0.3437 -0.256,0.1002 -0.4865,0.2362 -0.7185,0.375 -0.00741,0.0044 -0.023866,-0.0045 -0.03125,0 -0.031933,0.0193 -0.062293,0.04251 -0.09375,0.0625 -0.1204,0.0767 -0.23102,0.16351 -0.34375,0.25 -0.10617,0.0808 -0.21328,0.16111 -0.3125,0.25 -0.1779,0.1614 -0.3474,0.3453 -0.5,0.5312 -0.1075,0.1303 -0.2183,0.2653 -0.3124,0.4063 -0.0251,0.0383 -0.0385,0.0858 -0.0626,0.125 -0.0647,0.103 -0.1302,0.2045 -0.1874,0.3124 -0.1011,0.1948 -0.2057,0.4158 -0.2813,0.625 -0.008,0.0219 -0.0236,0.0406 -0.0313,0.0626 -0.0318,0.0919 -0.0358,0.1868 -0.0624,0.2812 -0.0304,0.1066 -0.0704,0.203 -0.0938,0.3125 -0.0729,0.3415 -0.125,0.6985 -0.125,1.0625 l 0,2 0,68 0,2 c 0,2.7818 2.2182,5 5,5 l 2,0 68,0 2,0 c 2.7818,0 5,-2.2182 5,-5 l 0,-2 0,-68 0,-2 c 0,-0.364 -0.052,-0.721 -0.125,-1.0625 -0.044,-0.2069 -0.088,-0.3977 -0.156,-0.5937 -0.008,-0.022 -0.024,-0.0407 -0.031,-0.0626 -0.063,-0.1737 -0.139,-0.3674 -0.219,-0.5312 -0.042,-0.0828 -0.079,-0.17 -0.125,-0.25 -0.055,-0.0972 -0.127,-0.1884 -0.188,-0.2812 -0.094,-0.141 -0.205,-0.276 -0.312,-0.4063 -0.143,-0.1745 -0.303,-0.347 -0.469,-0.5 -0.011,-0.0102 -0.02,-0.0211 -0.031,-0.0313 -0.139,-0.1255 -0.285,-0.2344 -0.438,-0.3437 -0.102,-0.0731 -0.204,-0.1534 -0.312,-0.2187 -0.0074,-0.0045 -0.02384,0.0044 -0.03125,0 -0.23204,-0.13873 -0.46255,-0.27478 -0.71875,-0.375 0.30153,0.0968 0.59646,0.20414 0.875,0.34375 0.55709,0.27922 1.0601,0.66569 1.5,1.0938 0.21997,0.21403 0.40937,0.44186 0.59375,0.6875 0.18438,0.24564 0.35541,0.50774 0.5,0.78125 0.14012,0.26505 0.27614,0.52473 0.375,0.8125 0.01041,0.03078 0.02133,0.06274 0.03125,0.09375 0.09046,0.27808 0.1388,0.5794 0.1875,0.875 0.053,0.318 0.094,0.634 0.094,0.969 l 0,2 0,68 0,2 c 0,3.324 -2.676,6 -6,6 l -72,0 z"
       inkscape:connector-curvature="0"
       style="opacity:0.6;fill:url(#radialGradient3619)" />
    <rect
       id="rect2841"
       rx="6"
       ry="6"
       height="84"
       width="84"
       y="106"
       x="6"
       style="fill:url(#linearGradient2843)" />
    <rect
       id="rect3634"
       rx="4"
       ry="4"
       height="76"
       width="76"
       y="110"
       x="10"
       style="fill:#ff0000" />
    <path
       id="rect3647"
       style="color:#000000;text-indent:0;text-decoration:none;text-decoration-line:none;text-transform:none;block-progression:tb;display:inline;filter:url(#filter3657)"
       d="m 14,9 c -2.7527,0 -5,2.2473 -5,5 l 0,68 c 0,2.7527 2.2473,5 5,5 l 68,0 c 2.7527,0 5,-2.2473 5,-5 L 87,14 C 87,11.247 84.753,9 82,9 L 14,9 Z m 0,2 68,0 c 1.6793,0 3,1.3207 3,3 l 0,68 c 0,1.6793 -1.3207,3 -3,3 l -68,0 c -1.6793,0 -3,-1.3207 -3,-3 l 0,-68 c 0,-1.6793 1.3207,-3 3,-3 z"
       clip-path="url(#clipPath3649)"
       transform="translate(-110,0)"
       display="inline"
       inkscape:connector-curvature="0" />
    <path
       id="path3709"
       d="m 14.089,10 c -2.216,0 -4,1.784 -4,4 l 0,68 c 0,2.216 1.784,4 4,4 l 68,0 c 2.216,0 4,-1.784 4,-4 l 0,-68 c 0,-2.216 -1.784,-4 -4,-4 l -68,0 z m 0,2 68,0 c 1.1403,0 2,0.8597 2,2 l 0,68 c 0,1.1403 -0.8597,2 -2,2 l -68,0 c -1.1403,0 -2,-0.8597 -2,-2 l 0,-68 c 0,-1.1403 0.8597,-2 2,-2 z"
       inkscape:connector-curvature="0"
       style="opacity:0.16000001" />
    <path
       id="path3707"
       d="m 14,10 c -2.216,0 -4,1.784 -4,4 l 0,68 c 0,2.216 1.784,4 4,4 l 68,0 c 2.216,0 4,-1.784 4,-4 l 0,-68 c 0,-2.216 -1.784,-4 -4,-4 l -68,0 z m 0,1 68,0 c 1.6738,0 3,1.3262 3,3 l 0,68 c 0,1.6738 -1.3262,3 -3,3 l -68,0 c -1.6738,0 -3,-1.3262 -3,-3 l 0,-68 c 0,-1.6738 1.3262,-3 3,-3 z"
       inkscape:connector-curvature="0"
       style="opacity:0.36000001" />
  </g>
  <g
     id="layer5"
     display="none"
     transform="translate(0,-80)"
     style="display:none">
    <rect
       id="rect3171"
       height="66"
       rx="12"
       ry="12"
       width="66"
       clip-path="url(#clipPath3613)"
       y="15"
       x="15"
       style="opacity:0.1;fill:url(#linearGradient3613);stroke:#ffffff;stroke-width:0.5;stroke-linecap:round;filter:url(#filter3794)" />
  </g>
  <path
     style="fill:#ffcf3f"
     inkscape:connector-curvature="0"
     id="path3905"
     d="m 5.2443623,13.198186 c 0.7190562,0.411051 0.968691,1.32717 0.557666,2.046176 C 5.3909784,15.963419 4.4748592,16.213053 3.755853,15.802029 3.0365968,15.391053 2.786912,14.475109 3.197987,13.755653 3.609012,13.036696 4.5249062,12.787212 5.2443623,13.198186 Z" />
  <path
     style="fill:#7cc327"
     inkscape:connector-curvature="0"
     id="path4298"
     d="M 2.9923173,8.2641095 C 3.9511175,8.8122069 4.2840319,10.033767 3.7359174,10.992567 3.187803,11.951425 1.9662598,12.283996 1.0075167,11.735996 0.04871644,11.187996 -0.28419793,9.9662814 0.2639165,9.007424 0.81203094,8.0485667 2.0335741,7.7159951 2.9923173,8.2639952 Z" />
  <path
     style="fill:#27adc3"
     inkscape:connector-curvature="0"
     id="path4310"
     d="M 4.7407078,2.3299995 C 5.9388622,3.0151413 6.3551223,4.5419285 5.6701056,5.7407079 4.9850888,6.9388622 3.457989,7.3551223 2.2595222,6.6701056 1.0609929,5.9850888 0.64485771,4.457989 1.3299995,3.2595222 2.0151412,2.060993 3.542116,1.6448578 4.7407078,2.3299995 Z" />
  <path
     style="fill:#ffcf3f"
     inkscape:connector-curvature="0"
     id="path4322"
     d="M 12.23674,0.46195475 C 13.914583,1.4211499 14.497177,3.5588956 13.538046,5.2367393 12.578851,6.9145829 10.441105,7.4971764 8.7632607,6.5380449 7.0854171,5.5788498 6.5028236,3.4411041 7.4619551,1.7632604 8.4211502,0.08541674 10.558896,-0.49717671 12.23674,0.46195475 Z" />
  <path
     style="fill:#7cc327"
     inkscape:connector-curvature="0"
     id="path4334"
     d="m 14.740527,7.329977 c 1.198433,0.6851224 1.614619,2.2120541 0.929496,3.41055 -0.685122,1.198432 -2.212054,1.614619 -3.41055,0.929496 -1.198432,-0.685122 -1.614619,-2.2120539 -0.929496,-3.4105495 0.685122,-1.198433 2.212054,-1.614619 3.41055,-0.9294965 z" />
  <path
     style="fill:#27adc3"
     inkscape:connector-curvature="0"
     id="path4346"
     d="m 10.896545,12.212577 c 0.987146,0.495053 1.386061,1.696634 0.891032,2.68378 -0.495053,0.987146 -1.696634,1.386061 -2.6837801,0.891031 -0.9871459,-0.495053 -1.3860614,-1.696634 -0.8910314,-2.68378 0.495053,-0.987145 1.6966337,-1.386061 2.6837795,-0.891031 z" />
</svg>
